modules/feathericon/icons/quote-left.svg

<?xml version="1.0" encoding="UTF-8"?>
<svg width="24px" height="24px" viewBox="0 0 24 24" version="1.1" xmlns="http://www.w3.org/2000/svg" xmlns:xlink="http://www.w3.org/1999/xlink">
    <!-- Generator: sketchtool 52.2 (67145) - http://www.bohemiancoding.com/sketch -->
    <title>quote-left</title>
    <desc>Created with sketchtool.</desc>
    <g id="text-edit" stroke="none" stroke-width="1" fill="none" fill-rule="evenodd">
        <g id="quote-left" fill="#000000">
            <path d="M7,21 C4.790861,21 3,19.2099991 3,17 C3,15.5266673 4.33333333,10.8600006 7,3 L9,3 C7.66666667,9.66666667 7,13 7,13 C9.209139,13 11,14.790861 11,17 C11,19.209139 9.209139,21 7,21 Z M17,21 C14.790861,21 13,19.2099991 13,17 C13,15.5266673 14.3333333,10.8600006 17,3 L19,3 C17.6666667,9.66666667 17,13 17,13 C19.209139,13 21,14.790861 21,17 C21,19.209139 19.209139,21 17,21 Z" id="Shape"></path>
        </g>
    </g>
</svg>

<svg width="24" height="24" viewBox="0 0 24 24" xmlns="http://www.w3.org/2000/svg"><path d="M7 21a4 4 0 0 1-4-4c0-1.473 1.333-6.14 4-14h2L7 13a4 4 0 1 1 0 8zm10 0a4 4 0 0 1-4-4c0-1.473 1.333-6.14 4-14h2l-2 10a4 4 0 1 1 0 8z" fill="#000" fill-rule="evenodd"/></svg>
